sz-lotos/img/info-01.svg

<svg width="145" height="145" viewBox="0 0 145 145" fill="none" xmlns="http://www.w3.org/2000/svg">
<g clip-path="url(#clip0_2_25)">
<path d="M72.5 145C112.541 145 145 112.541 145 72.5C145 32.4594 112.541 0 72.5 0C32.4594 0 0 32.4594 0 72.5C0 112.541 32.4594 145 72.5 145Z" fill="white"/>
<path d="M72.5 123.37C100.595 123.37 123.37 100.595 123.37 72.5C123.37 44.4053 100.595 21.63 72.5 21.63C44.4053 21.63 21.63 44.4053 21.63 72.5C21.63 100.595 44.4053 123.37 72.5 123.37Z" fill="url(#paint0_linear_2_25)"/>
<path d="M48.5038 102.21C48.3538 102.02 48.1438 101.85 48.0638 101.63C47.8238 101 48.2838 100.47 49.0638 100.47C53.3738 100.47 57.6938 100.47 62.0038 100.47C62.2338 100.47 62.4638 100.47 62.7838 100.47C62.7838 99.64 62.7938 98.84 62.7738 98.04C62.7738 97.92 62.5938 97.76 62.4638 97.71C59.2238 96.35 56.6938 94.16 54.8238 91.19C54.7138 91.01 54.4038 90.87 54.1838 90.87C52.7138 90.84 51.2438 90.87 49.7738 90.85C48.5938 90.85 48.0138 90.29 48.0138 89.12C48.0038 86.32 48.0038 83.51 48.0138 80.71C48.0138 79.57 48.6138 79.01 49.7438 79.01C50.5738 79.01 51.4038 79 52.2438 79.01C52.5638 79.01 52.6638 78.91 52.7138 78.59C53.6338 73.39 56.4038 69.51 61.0138 66.94C61.3638 66.74 61.4938 66.53 61.4938 66.13C61.4738 64.25 61.4838 62.38 61.4938 60.5C61.4938 59.05 62.4338 58.35 63.7838 58.86C64.6638 59.19 65.5238 59.6 66.3338 60.09C67.1238 60.57 67.8238 61.18 68.4738 61.66C69.0738 60.87 69.7038 60.06 70.3138 59.23C70.4138 59.09 70.4638 58.88 70.4738 58.71C70.4938 58.17 70.4738 57.63 70.4838 57.09C70.5038 56.47 70.8438 56.11 71.3938 56.12C71.9238 56.13 72.2138 56.46 72.2538 57.08C72.2638 57.33 72.2538 57.57 72.2538 57.85C73.0338 57.64 73.7538 57.44 74.5238 57.23C74.5238 56.39 74.5238 55.52 74.5238 54.66C74.5238 53.99 74.8638 53.59 75.3938 53.59C75.9338 53.59 76.2638 54 76.2738 54.66C76.2738 55.53 76.2738 56.4 76.2738 57.26C76.9738 57.46 77.6338 57.65 78.3338 57.85C78.3538 57.71 78.3538 57.56 78.3938 57.42C78.5238 56.96 78.8038 56.68 79.3138 56.71C79.8138 56.74 80.1738 57.05 80.1038 57.52C79.9538 58.64 80.4638 59.41 81.1438 60.23C82.2038 61.5 82.6338 63.05 82.5338 64.72C82.5038 65.16 82.6138 65.34 83.0838 65.45C84.9438 65.87 86.6738 66.63 88.2538 67.7C88.8338 68.09 88.9938 68.61 88.6838 69.06C88.3738 69.52 87.8838 69.58 87.3138 69.2C85.7338 68.15 84.0238 67.44 82.1738 67.06C81.6838 67.84 81.2038 68.62 80.6738 69.47C80.9038 69.47 81.1338 69.47 81.3738 69.47C81.9938 69.48 82.3938 69.82 82.3938 70.33C82.3938 70.86 81.9838 71.21 81.3238 71.21C78.4438 71.21 75.5538 71.21 72.6738 71.21C71.6838 71.21 70.7038 71.21 69.7138 71.21C69.0038 71.21 68.5938 70.88 68.6038 70.32C68.6038 69.79 68.9938 69.49 69.6838 69.46C69.7638 69.46 69.8338 69.45 69.9638 69.44C69.8738 69.3 69.8138 69.19 69.7338 69.09C68.5938 67.73 68.0738 66.15 68.0238 64.4C68.0238 64.2 67.9938 63.96 67.8838 63.81C66.7038 62.26 65.1438 61.24 63.2438 60.54V62.26C63.2438 63.77 63.2138 65.28 63.2538 66.79C63.2738 67.51 63.0038 67.91 62.3638 68.23C58.6038 70.09 56.0838 73.04 54.8638 77.06C54.5938 77.94 54.4738 78.87 54.3138 79.78C54.1938 80.48 53.9538 80.73 53.2638 80.74C52.1238 80.74 50.9838 80.74 49.8138 80.74V89.1C51.1538 89.1 52.4838 89.1 53.8138 89.1C56.0238 89.1 55.4838 88.92 56.5538 90.57C58.2838 93.26 60.6838 95.14 63.6638 96.27C64.4538 96.57 64.5438 96.69 64.5438 97.55C64.5438 98.49 64.5438 99.44 64.5438 100.42C64.7038 100.44 64.8338 100.47 64.9638 100.47C66.5138 100.47 68.0638 100.47 69.6038 100.47C69.9438 100.47 70.0738 100.37 70.1138 100.02C70.1838 99.33 70.3038 98.64 70.4138 97.96C70.4938 97.44 70.8138 97.19 71.3338 97.18C71.7938 97.18 72.2638 97.16 72.7238 97.18C73.2738 97.2 73.6338 97.54 73.6538 98.02C73.6738 98.5 73.2738 98.9 72.7238 98.94C72.5138 98.95 72.3038 98.94 72.0538 98.94C71.9738 99.45 71.8938 99.92 71.8138 100.43H79.2638C79.1838 99.93 79.1138 99.45 79.0338 98.94C78.3238 98.94 77.6638 98.94 77.0138 98.94C76.3638 98.94 75.9438 98.58 75.9338 98.05C75.9338 97.52 76.3338 97.18 77.0038 97.17C77.8938 97.16 78.7838 97.15 79.6738 97.15C80.2238 97.15 80.6038 97.39 80.6838 97.97C80.7838 98.66 80.8738 99.35 81.0038 100.03C81.0338 100.19 81.2138 100.44 81.3238 100.44C83.0438 100.47 84.7538 100.46 86.5438 100.46C86.5438 99.24 86.6138 98.06 86.5238 96.89C86.4338 95.73 86.8138 95.03 87.7838 94.31C91.6338 91.49 93.5438 87.62 93.6538 82.85C93.7138 80.22 93.5638 77.62 92.3638 75.22C91.7938 74.09 91.0238 73.06 90.3838 71.96C90.2238 71.68 90.0838 71.26 90.1638 70.97C90.3738 70.27 91.1638 70.2 91.6838 70.8C92.9038 72.22 93.7938 73.84 94.4538 75.59C95.3738 78.03 95.4938 80.56 95.4038 83.12C95.2238 88.48 92.9438 92.72 88.6538 95.91C88.5038 96.02 88.3138 96.22 88.3138 96.39C88.2838 97.72 88.2938 99.05 88.2938 100.45C88.9838 100.45 89.6338 100.45 90.2938 100.45C91.5938 100.45 92.8838 100.45 94.1838 100.45C94.6738 100.45 95.1338 100.47 95.3538 100.99C95.5638 101.5 95.2738 101.87 94.9238 102.2H48.4838L48.5038 102.21ZM75.2738 69.47C75.6638 69.47 76.0538 69.42 76.4338 69.47C77.4738 69.62 78.2738 69.15 78.9838 68.49C80.4038 67.15 81.0038 65.52 80.6838 63.57C80.3238 61.37 78.6238 59.58 76.4938 59.14C74.2138 58.67 71.9238 59.6 70.6938 61.5C69.4638 63.41 69.5138 65.87 70.8838 67.69C71.7438 68.83 72.7738 69.68 74.3438 69.47C74.6438 69.43 74.9638 69.47 75.2738 69.47Z" fill="white"/>
<path d="M65.33 42.79C68.45 42.79 71.19 44.72 72.21 47.63C72.49 48.42 72.33 48.95 71.77 49.14C71.23 49.32 70.82 49.01 70.54 48.23C69.76 46.04 67.71 44.55 65.43 44.53C63.15 44.51 61.04 45.96 60.23 48.11C59.22 50.8 60.47 53.8 63.11 55C65.73 56.2 68.82 55.17 70.19 52.63C70.28 52.46 70.36 52.28 70.44 52.11C70.72 51.54 71.17 51.32 71.66 51.53C72.14 51.73 72.31 52.23 72.06 52.81C71.04 55.19 69.24 56.67 66.71 57.14C62.12 57.99 58.03 54.45 58.12 49.78C58.19 45.95 61.46 42.78 65.34 42.78L65.33 42.79Z" fill="white"/>
<path d="M54.26 56.96C56.38 56.96 58.18 58.73 58.2 60.86C58.22 63 56.39 64.83 54.25 64.81C52.12 64.79 50.34 63 50.34 60.88C50.34 58.76 52.14 56.97 54.26 56.96ZM54.28 63.01C55.48 63.01 56.4 62.08 56.4 60.89C56.4 59.69 55.49 58.77 54.29 58.76C53.07 58.76 52.13 59.69 52.15 60.92C52.16 62.12 53.09 63.02 54.29 63.02L54.28 63.01Z" fill="white"/>
<path d="M92.51 57.02C92.45 59.19 90.68 60.91 88.55 60.87C86.36 60.83 84.65 59.01 84.7 56.78C84.74 54.71 86.61 52.95 88.7 53.02C90.86 53.09 92.57 54.88 92.52 57.02H92.51ZM90.74 56.92C90.74 55.73 89.79 54.81 88.59 54.82C87.4 54.82 86.45 55.78 86.45 56.95C86.45 58.14 87.43 59.1 88.65 59.08C89.84 59.06 90.75 58.12 90.74 56.92Z" fill="white"/>
<path d="M69.27 50.04C69.27 52.23 67.52 53.94 65.31 53.93C63.17 53.92 61.46 52.17 61.47 49.98C61.47 47.83 63.23 46.1 65.4 46.12C67.58 46.14 69.28 47.86 69.27 50.03V50.04ZM67.51 50.01C67.51 48.83 66.55 47.89 65.37 47.89C64.2 47.89 63.22 48.85 63.21 50.01C63.21 51.18 64.23 52.2 65.4 52.18C66.56 52.16 67.52 51.17 67.51 50.01Z" fill="white"/>
<path d="M58.44 80.63C58.44 79.92 58.44 79.2 58.44 78.49C58.45 77.91 58.81 77.54 59.31 77.55C59.81 77.55 60.17 77.94 60.18 78.51C60.18 79.98 60.19 81.44 60.18 82.91C60.18 83.47 59.79 83.86 59.3 83.86C58.81 83.86 58.45 83.47 58.44 82.89C58.43 82.14 58.44 81.38 58.44 80.63Z" fill="white"/>
<path d="M80.87 54.17C80.87 54.66 80.49 55.06 80.02 55.07C79.55 55.07 79.13 54.67 79.12 54.2C79.11 53.73 79.51 53.32 79.99 53.31C80.5 53.31 80.87 53.66 80.87 54.16V54.17Z" fill="white"/>
<path d="M77.02 50.93C77.02 51.41 76.64 51.82 76.16 51.83C75.68 51.84 75.29 51.46 75.28 50.97C75.27 50.47 75.63 50.09 76.13 50.09C76.63 50.09 77.02 50.45 77.03 50.94L77.02 50.93Z" fill="white"/>
<path d="M75.99 68.36C73.76 68.3 72.08 66.51 72.16 64.28C72.23 62.23 74.08 60.51 76.15 60.56C78.3 60.61 80.05 62.43 79.98 64.54C79.91 66.72 78.14 68.42 75.99 68.36ZM76.05 62.36C74.86 62.36 73.9 63.32 73.91 64.49C73.92 65.66 74.89 66.59 76.08 66.59C77.27 66.59 78.2 65.65 78.2 64.46C78.2 63.27 77.26 62.35 76.05 62.36Z" fill="white"/>
</g>
<defs>
<linearGradient id="paint0_linear_2_25" x1="81.1" y1="32.24" x2="48.34" y2="185.58" gradientUnits="userSpaceOnUse">
<stop stop-color="#DC7C93"/>
<stop offset="0.09" stop-color="#D37A93"/>
<stop offset="0.24" stop-color="#BC7594"/>
<stop offset="0.43" stop-color="#976D95"/>
<stop offset="0.65" stop-color="#636197"/>
<stop offset="0.89" stop-color="#21539A"/>
<stop offset="1" stop-color="#004C9C"/>
</linearGradient>
<clipPath id="clip0_2_25">
<rect width="145" height="145" fill="white"/>
</clipPath>
</defs>
</svg>

<svg width="145" height="145" fill="none" xmlns="http://www.w3.org/2000/svg"><g clip-path="url(#clip0_2_25)"><path d="M72.5 145c40.041 0 72.5-32.459 72.5-72.5C145 32.46 112.541 0 72.5 0 32.46 0 0 32.46 0 72.5 0 112.541 32.46 145 72.5 145z" fill="#fff"/><path d="M72.5 123.37c28.095 0 50.87-22.775 50.87-50.87S100.595 21.63 72.5 21.63 21.63 44.405 21.63 72.5s22.775 50.87 50.87 50.87z" fill="url(#paint0_linear_2_25)"/><path d="M48.504 102.21c-.15-.19-.36-.36-.44-.58-.24-.63.22-1.16 1-1.16h13.72c0-.83.01-1.63-.01-2.43 0-.12-.18-.28-.31-.33-3.24-1.36-5.77-3.55-7.64-6.52-.11-.18-.42-.32-.64-.32-1.47-.03-2.94 0-4.41-.02-1.18 0-1.76-.56-1.76-1.73-.01-2.8-.01-5.61 0-8.41 0-1.14.6-1.7 1.73-1.7.83 0 1.66-.01 2.5 0 .32 0 .42-.1.47-.42.92-5.2 3.69-9.08 8.3-11.65.35-.2.48-.41.48-.81-.02-1.88-.01-3.75 0-5.63 0-1.45.94-2.15 2.29-1.64.88.33 1.74.74 2.55 1.23.79.48 1.49 1.09 2.14 1.57.6-.79 1.23-1.6 1.84-2.43.1-.14.15-.35.16-.52.02-.54 0-1.08.01-1.62.02-.62.36-.98.91-.97.53.01.82.34.86.96.01.25 0 .49 0 .77.78-.21 1.5-.41 2.27-.62v-2.57c0-.67.34-1.07.87-1.07.54 0 .87.41.88 1.07v2.6l2.06.59c.02-.14.02-.29.06-.43.13-.46.41-.74.92-.71.5.03.86.34.79.81-.15 1.12.36 1.89 1.04 2.71 1.06 1.27 1.49 2.82 1.39 4.49-.03.44.08.62.55.73 1.86.42 3.59 1.18 5.17 2.25.58.39.74.91.43 1.36-.31.46-.8.52-1.37.14a14.441 14.441 0 00-5.14-2.14c-.49.78-.97 1.56-1.5 2.41h.7c.62.01 1.02.35 1.02.86 0 .53-.41.88-1.07.88h-11.61c-.71 0-1.12-.33-1.11-.89 0-.53.39-.83 1.08-.86.08 0 .15-.01.28-.02-.09-.14-.15-.25-.23-.35-1.14-1.36-1.66-2.94-1.71-4.69 0-.2-.03-.44-.14-.59-1.18-1.55-2.74-2.57-4.64-3.27v1.72c0 1.51-.03 3.02.01 4.53.02.72-.25 1.12-.89 1.44-3.76 1.86-6.28 4.81-7.5 8.83-.27.88-.39 1.81-.55 2.72-.12.7-.36.95-1.05.96h-3.45v8.36h4c2.21 0 1.67-.18 2.74 1.47 1.73 2.69 4.13 4.57 7.11 5.7.79.3.88.42.88 1.28v2.87c.16.02.29.05.42.05h4.64c.34 0 .47-.1.51-.45.07-.69.19-1.38.3-2.06.08-.52.4-.77.92-.78.46 0 .93-.02 1.39 0 .55.02.91.36.93.84.02.48-.38.88-.93.92-.21.01-.42 0-.67 0-.08.51-.16.98-.24 1.49h7.45c-.08-.5-.15-.98-.23-1.49h-2.02c-.65 0-1.07-.36-1.08-.89 0-.53.4-.87 1.07-.88.89-.01 1.78-.02 2.67-.02.55 0 .93.24 1.01.82.1.69.19 1.38.32 2.06.03.16.21.41.32.41 1.72.03 3.43.02 5.22.02 0-1.22.07-2.4-.02-3.57-.09-1.16.29-1.86 1.26-2.58 3.85-2.82 5.76-6.69 5.87-11.46.06-2.63-.09-5.23-1.29-7.63-.57-1.13-1.34-2.16-1.98-3.26-.16-.28-.3-.7-.22-.99.21-.7 1-.77 1.52-.17 1.22 1.42 2.11 3.04 2.77 4.79.92 2.44 1.04 4.97.95 7.53-.18 5.36-2.46 9.6-6.75 12.79-.15.11-.34.31-.34.48-.03 1.33-.02 2.66-.02 4.06h5.89c.49 0 .95.02 1.17.54.21.51-.08.88-.43 1.21h-46.44l.02.01zm26.77-32.74c.39 0 .78-.05 1.16 0 1.04.15 1.84-.32 2.55-.98 1.42-1.34 2.02-2.97 1.7-4.92-.36-2.2-2.06-3.99-4.19-4.43-2.28-.47-4.57.46-5.8 2.36-1.23 1.91-1.18 4.37.19 6.19.86 1.14 1.89 1.99 3.46 1.78.3-.04.62 0 .93 0z" fill="#fff"/><path d="M65.33 42.79c3.12 0 5.86 1.93 6.88 4.84.28.79.12 1.32-.44 1.51-.54.18-.95-.13-1.23-.91-.78-2.19-2.83-3.68-5.11-3.7-2.28-.02-4.39 1.43-5.2 3.58-1.01 2.69.24 5.69 2.88 6.89 2.62 1.2 5.71.17 7.08-2.37.09-.17.17-.35.25-.52.28-.57.73-.79 1.22-.58.48.2.65.7.4 1.28-1.02 2.38-2.82 3.86-5.35 4.33-4.59.85-8.68-2.69-8.59-7.36.07-3.83 3.34-7 7.22-7l-.01.01zM54.26 56.96c2.12 0 3.92 1.77 3.94 3.9.02 2.14-1.81 3.97-3.95 3.95-2.13-.02-3.91-1.81-3.91-3.93s1.8-3.91 3.92-3.92zm.02 6.05c1.2 0 2.12-.93 2.12-2.12 0-1.2-.91-2.12-2.11-2.13-1.22 0-2.16.93-2.14 2.16.01 1.2.94 2.1 2.14 2.1l-.01-.01zm38.23-5.99c-.06 2.17-1.83 3.89-3.96 3.85-2.19-.04-3.9-1.86-3.85-4.09.04-2.07 1.91-3.83 4-3.76 2.16.07 3.87 1.86 3.82 4h-.01zm-1.77-.1c0-1.19-.95-2.11-2.15-2.1-1.19 0-2.14.96-2.14 2.13 0 1.19.98 2.15 2.2 2.13 1.19-.02 2.1-.96 2.09-2.16z" fill="#fff"/><path d="M69.27 50.04c0 2.19-1.75 3.9-3.96 3.89-2.14-.01-3.85-1.76-3.84-3.95 0-2.15 1.76-3.88 3.93-3.86 2.18.02 3.88 1.74 3.87 3.91v.01zm-1.76-.03c0-1.18-.96-2.12-2.14-2.12-1.17 0-2.15.96-2.16 2.12 0 1.17 1.02 2.19 2.19 2.17 1.16-.02 2.12-1.01 2.11-2.17zm-9.07 30.62v-2.14c.01-.58.37-.95.87-.94.5 0 .86.39.87.96 0 1.47.01 2.93 0 4.4 0 .56-.39.95-.88.95s-.85-.39-.86-.97c-.01-.75 0-1.51 0-2.26zm22.43-26.46c0 .49-.38.89-.85.9-.47 0-.89-.4-.9-.87-.01-.47.39-.88.87-.89.51 0 .88.35.88.85v.01zm-3.85-3.24c0 .48-.38.89-.86.9a.864.864 0 01-.88-.86c-.01-.5.35-.88.85-.88s.89.36.9.85l-.01-.01zm-1.03 17.43c-2.23-.06-3.91-1.85-3.83-4.08.07-2.05 1.92-3.77 3.99-3.72 2.15.05 3.9 1.87 3.83 3.98-.07 2.18-1.84 3.88-3.99 3.82zm.06-6c-1.19 0-2.15.96-2.14 2.13.01 1.17.98 2.1 2.17 2.1s2.12-.94 2.12-2.13-.94-2.11-2.15-2.1z" fill="#fff"/></g><defs><linearGradient id="paint0_linear_2_25" x1="81.1" y1="32.24" x2="48.34" y2="185.58" gradientUnits="userSpaceOnUse"><stop stop-color="#DC7C93"/><stop offset=".09" stop-color="#D37A93"/><stop offset=".24" stop-color="#BC7594"/><stop offset=".43" stop-color="#976D95"/><stop offset=".65" stop-color="#636197"/><stop offset=".89" stop-color="#21539A"/><stop offset="1" stop-color="#004C9C"/></linearGradient><clipPath id="clip0_2_25"><path fill="#fff" d="M0 0h145v145H0z"/></clipPath></defs></svg>
